!!!ONB: MCCC : IFC0046_03 : Extracted Monophonic Melody
!!!COM: Chopin, Frédéric
!!!OPR: 2 Mazurkas
!!!OMV: 3
!!!SCT: B.16
!!!ODT: 1825///
**kern
*thru
*staff1
*clefG2
*k[f#c#g#d#a#]
*B:
*M3/4
*MM132
=1
8e
8d#
2d#
=2
8e
8d#
2d#
=3
8e
8d#
2d#
=4
8e
8d#
2d#[
=5
4d#]
8c#
8B
8e
8f#
=6
8g#
8d#
8e
8g#
8b
8cc#
=7
8dd#
16r
16a#
12b
12cc#
12b
8a#
8g#
=8
8f#
8c#
8d#
8e
8g#
8f#
=9
8e
8d#
2d#
=10
8e
8d#
2d#
=11
8e
8d#
2d#
=12
8e
8d#
2d#[
=13
4d#]
8c#
8B
8e
8f#
=14
8g#
8d#
8e
8g#
8b
8cc#
=15
8dd#
16r
16a
12b-
12cc
12b-
8a-
8g
=16
8a-
8e
8f
8a-
8cc
8b-
=17
4g#
12b-
12cc
12b-
8a-
8g#
=18
8a-
8e
8f
8a-
8cc
8b-
=19
4g
12b-
12cc
12b-
8a-
8g
=20
8f#
8c#
8d#
8e
8g#
8f#
=21
8e
8d#
2d#
=22
8e
8d#
2d#
=23
8e
8d#
2d#
=24
8e
8d#
2d#[
=25
4d#]
8c#
8B
8e
8f#
=26
8g#
8d#
8e
8g#
8b
8cc#
=27
8dd#
16r
16a#
12b
12cc#
12b
8a#
8g#
=28
8f#
8c#
8d#
8e
8g#
8f#
=29
8e
8d#
2d#
=30
8e
8d#
2d#
=31
8e
8d#
2d#
=32
8e
8d#
2d#[
=33
4d#]
8c#
8B
8e
8f#
=34
8g#
8d#
8e
8g#
8b
8cc#
=35
8dd
16r
16g#
12a
12b
12a
8g
8f#
=36
8g
8d#
8e
8g
8b
8a
=37
4f#
12a
12b
12a
8g
8f#
=38
8g
8d#
8e
8g
8b
8a
=39
2.d
=40
2.d
=41
12d
12d
12d
4d
4d
=42
2.r
=43
2.dd
=44
2.dd
=45
12dd
12dd
12dd
4dd
4dd
=46
12dd
12dd
12dd
4dd
4gg
=47
2.bb
=48
12bb
12bb
12bb
4bb
4bb
=49
12bb
12bb
12bb
4bb
4eee
=50
12b
12b
12b
4b
4ee
=51
2.ff#
=52
12ff#
12ff#
12ff#
4ff#
4ff#
=53
12ff#
12ff#
12ff#
4ff#
4bb
=54
4bbb
4bbb
4bb
=55
2.b
=56
2.b
=57
8dd#
16r
16a#
12b
12cc#
12b
8a#
8g#
=58
8f#
8c#
8d#
8e
8g#
8f#
=59
2.b[
=60
2.b]
=61
8dd#
16r
16a
12b-
12cc
12b-
8a-
8g
=62
8a-
8e
8f
8a-
8cc
8b-
=63
4g
12b-
12cc
12b-
8a-
8g
=64
8a-
8e
8f
8a-
8cc
8b-
=65
4g
12b-
12cc
12b-
8a-
8g
=66
8f#
8c#
8d#
8e
8g#
8f#
=67
2.b[
=68
2.b]
=69
8dd#
16r
16a#
12b
12cc#
12b
8a#
8g#
=70
8f#
8c#
8d#
8e
8g#
8f#
=71
2.b[
=72
2.b]
=73
8dd#
8a#
8b
8dd#
8ee
8ff#
=74
8gg
8dd#
8ee
8gg
8bb
8ccc#
=75
4ddd#
4r
4r
=76
8e
8d#
2d#
=77
8e
8d#
2d#
=78
8e
8d#
4d#
4r
==
*-
